assets/images/forbes.svg

<svg width="92" height="32" viewBox="0 0 92 32" fill="none" xmlns="http://www.w3.org/2000/svg">
<path fill-rule="evenodd" clip-rule="evenodd" d="M56.0425 10.5106C54.5773 10.5106 53.4174 10.8148 52.2575 11.4841C52.2575 8.13757 52.2575 5.03439 52.3796 4L45.2369 5.27778V5.88624L45.9695 6.00794C46.9462 6.19048 47.2515 6.7381 47.4346 8.01587C47.6178 10.5714 47.5567 24.0185 47.4346 26.2698C49.3271 26.6958 51.3417 27 53.3563 27C58.9728 27 62.3304 23.5317 62.3304 18.0556C62.3915 13.6746 59.6443 10.5106 56.0425 10.5106ZM53.6005 25.7831C53.1732 25.7831 52.6237 25.7831 52.3185 25.6614C52.1964 24.2011 52.1354 17.9947 52.1964 12.5185C52.8069 12.336 53.2342 12.2143 53.7837 12.2143C56.1035 12.2143 57.3855 14.9524 57.3855 18.2989C57.3855 22.5582 55.7983 25.7831 53.6005 25.7831Z" fill="white"/>
<path fill-rule="evenodd" clip-rule="evenodd" d="M18.6198 4.42582H0V5.39937L1.03782 5.52106C2.44194 5.7036 2.93032 6.55545 3.17452 8.56339C3.47976 12.3359 3.35766 19.2115 3.17452 22.4972C2.99137 24.5052 2.44194 25.4179 1.03782 25.5396L0 25.7221V26.574H11.9655V25.7221L10.6835 25.5396C9.27936 25.4179 8.79097 24.5052 8.54678 22.4972C8.42468 21.0978 8.36364 18.9073 8.36364 16.1692L10.9277 16.2909C12.5149 16.2909 13.2475 17.5687 13.5528 19.3332H14.5295V11.7883H13.5528C13.2475 13.5528 12.5149 14.8306 10.9277 14.8306L8.36364 14.9523C8.36364 11.3623 8.48573 8.01577 8.54678 6.00783H12.2707C15.14 6.00783 16.6052 7.77238 17.643 10.9364L18.6808 10.6322L18.6198 4.42582Z" fill="white"/>
<path fill-rule="evenodd" clip-rule="evenodd" d="M24.6025 10.3281C29.9137 10.3281 32.5388 13.918 32.5388 18.6641C32.5388 23.1667 29.6085 27 24.2973 27C18.9861 27 16.361 23.4101 16.361 18.6641C16.361 14.1006 19.3524 10.3281 24.6025 10.3281ZM24.2973 11.3625C21.9774 11.3625 21.367 14.5265 21.367 18.6032C21.367 22.6191 22.4048 25.844 24.5415 25.844C26.9834 25.844 27.5939 22.6799 27.5939 18.6032C27.5939 14.6482 26.5561 11.3625 24.2973 11.3625Z" fill="white"/>
<path fill-rule="evenodd" clip-rule="evenodd" d="M63.7346 18.725C63.7346 14.4048 66.4818 10.2673 71.854 10.2673C76.3105 10.2673 78.3862 13.553 78.3862 17.8731H68.5574C68.4353 21.7673 70.3278 24.6271 74.1739 24.6271C75.8832 24.6271 76.7379 24.2011 77.7757 23.471L78.203 24.0186C77.1652 25.4789 74.8454 26.9392 71.854 26.9392C67.1533 27.0001 63.7346 23.5927 63.7346 18.725ZM68.6184 16.7779L73.5634 16.6562C73.5634 14.5265 73.2581 11.3625 71.4267 11.3625C69.6563 11.3625 68.7405 14.344 68.6184 16.7779Z" fill="white"/>
<path fill-rule="evenodd" clip-rule="evenodd" d="M91.0232 11.1799C89.7412 10.6323 88.0929 10.3281 86.1393 10.3281C82.2322 10.3281 79.7903 12.6403 79.7903 15.3783C79.7903 18.1164 81.5607 19.2725 84.1247 20.1244C86.7498 21.0979 87.4824 21.8281 87.4824 23.045C87.4824 24.3228 86.5056 25.4789 84.8573 25.4789C82.8427 25.4789 81.3776 24.3228 80.2176 21.1588L79.4851 21.3413L79.6071 25.9657C80.8892 26.5133 83.209 26.9392 85.2236 26.9392C89.3749 26.9392 92 24.8096 92 21.5847C92 19.3942 90.8401 18.1164 88.0929 17.0821C85.1626 15.926 84.0637 15.1958 84.0637 13.7963C84.0637 12.3969 85.0405 11.4842 86.2614 11.4842C88.1539 11.4842 89.436 12.6403 90.4127 15.5L91.1453 15.3175L91.0232 11.1799Z" fill="white"/>
<path fill-rule="evenodd" clip-rule="evenodd" d="M46.2747 10.7541C44.5043 9.71969 41.3298 10.2065 39.6204 14.0398L39.7425 10.3282L32.6609 11.7276V12.3361L33.3935 12.4578C34.3703 12.5795 34.7976 13.0662 34.8587 14.4657C35.0418 17.0213 34.9808 21.4022 34.8587 23.6535C34.7366 24.9313 34.3092 25.5398 33.3935 25.6615L32.6609 25.7832V26.635H42.4897V25.7832L41.2077 25.6615C40.1699 25.5398 39.8036 24.9313 39.7425 23.6535C39.5594 21.6456 39.5594 17.6297 39.6204 15.135C40.1699 14.4049 42.4897 13.7356 44.5654 15.135L46.2747 10.7541Z" fill="white"/>
</svg>

<svg width="92" height="32" fill="none" xmlns="http://www.w3.org/2000/svg"><path fill-rule="evenodd" clip-rule="evenodd" d="M56.042 10.51c-1.465 0-2.625.305-3.785.974 0-3.346 0-6.45.123-7.484l-7.143 1.278v.608l.732.122c.977.182 1.282.73 1.466 2.008.183 2.555.122 16.002 0 18.254 1.892.426 3.907.73 5.921.73 5.617 0 8.974-3.468 8.974-8.944.062-4.381-2.686-7.545-6.288-7.545zM53.6 25.784c-.427 0-.976 0-1.282-.122-.122-1.46-.183-7.666-.122-13.143.61-.182 1.038-.304 1.588-.304 2.32 0 3.602 2.738 3.602 6.085 0 4.26-1.588 7.484-3.786 7.484zM18.62 4.426H0v.973l1.038.122c1.404.183 1.892 1.034 2.137 3.042.305 3.773.183 10.649 0 13.934-.184 2.008-.733 2.92-2.137 3.043L0 25.722v.852h11.966v-.852l-1.282-.182c-1.405-.122-1.893-1.035-2.137-3.043-.122-1.4-.183-3.59-.183-6.328l2.564.122c1.587 0 2.32 1.278 2.625 3.042h.976v-7.545h-.976c-.306 1.765-1.038 3.043-2.625 3.043l-2.564.121c0-3.59.122-6.936.183-8.944h3.724c2.869 0 4.334 1.764 5.372 4.928l1.038-.304-.061-6.206z" fill="#fff"/><path fill-rule="evenodd" clip-rule="evenodd" d="M24.602 10.328c5.312 0 7.937 3.59 7.937 8.336 0 4.503-2.93 8.336-8.242 8.336-5.31 0-7.936-3.59-7.936-8.336 0-4.563 2.991-8.336 8.241-8.336zm-.305 1.035c-2.32 0-2.93 3.164-2.93 7.24 0 4.016 1.038 7.241 3.174 7.241 2.442 0 3.053-3.164 3.053-7.24 0-3.956-1.038-7.241-3.297-7.241zm39.438 7.362c0-4.32 2.747-8.458 8.119-8.458 4.457 0 6.532 3.286 6.532 7.606h-9.829c-.122 3.894 1.77 6.754 5.617 6.754 1.71 0 2.564-.426 3.602-1.156l.427.548c-1.038 1.46-3.358 2.92-6.349 2.92-4.7.061-8.12-3.346-8.12-8.214zm4.883-1.947l4.945-.122c0-2.13-.305-5.293-2.136-5.293-1.77 0-2.687 2.981-2.809 5.415zm22.405-5.598c-1.282-.548-2.93-.852-4.884-.852-3.907 0-6.349 2.312-6.349 5.05s1.77 3.895 4.335 4.746c2.625.974 3.357 1.704 3.357 2.921 0 1.278-.976 2.434-2.625 2.434-2.014 0-3.48-1.156-4.64-4.32l-.732.182.122 4.625c1.282.547 3.602.973 5.617.973 4.15 0 6.776-2.13 6.776-5.354 0-2.19-1.16-3.469-3.907-4.503-2.93-1.156-4.03-1.886-4.03-3.286 0-1.4.977-2.312 2.198-2.312 1.893 0 3.175 1.156 4.152 4.016l.732-.182-.122-4.138zm-44.748-.426c-1.77-1.034-4.945-.547-6.655 3.286l.123-3.712-7.082 1.4v.608l.733.122c.976.121 1.404.608 1.465 2.008.183 2.555.122 6.936 0 9.188-.122 1.277-.55 1.886-1.465 2.008l-.733.121v.852h9.829v-.852l-1.282-.122c-1.038-.121-1.404-.73-1.465-2.008-.184-2.007-.184-6.023-.123-8.518.55-.73 2.87-1.4 4.945 0l1.71-4.38z" fill="#fff"/></svg>
